material/.icons/material/zodiac-sagittarius.svg

<svg xmlns="http://www.w3.org/2000/svg" viewBox="0 0 24 24"><path d="M22 2v10h-2V5.41L10.41 15l2.3 2.29-1.42 1.42L9 16.41l-5.29 5.3-1.42-1.42L7.59 15l-2.3-2.29 1.42-1.42L9 13.59 18.59 4H12V2h10z"/></svg>

<?xml version="1.0" encoding="UTF-8"?><!DOCTYPE svg PUBLIC "-//W3C//DTD SVG 1.1//EN" "http://www.w3.org/Graphics/SVG/1.1/DTD/svg11.dtd"><svg xmlns="http://www.w3.org/2000/svg" xmlns:xlink="http://www.w3.org/1999/xlink" version="1.1" id="mdi-zodiac-sagittarius" width="24" height="24" viewBox="0 0 24 24"><path d="M22,2V12H20V5.41L10.41,15L12.71,17.29L11.29,18.71L9,16.41L3.71,21.71L2.29,20.29L7.59,15L5.29,12.71L6.71,11.29L9,13.59L18.59,4H12V2H22Z" /></svg>
